X:1
T:The Connaughtman's rambles
C:Trad. / Adapt. Jean Banwarth
M:6/8
L:1/8
K:G
A,G, \
|: F,A,A, DA,A, | B,A,B, DA,G, | F,A,A, DFE | DB,B, B,A,G, \
|  F,A,A, DA,A, | B,A,B, DEF | GFE DFE |1 DB,B, B,A,G, :|2 DB,B, B,2E ||
|: FBB FAA | FEF DEG | FBB FAA | FED E3 \
|  FBB FAA | FEF DEF | GFE DFE |1 DB,B, B,2E :|2 DB,B, B,A,G, |]
